X: 11052
T: The PORTREATH HORNPIPE
C: R. Bain.
P: Copyright.
%R: hornpipe
B: W. Hamilton "Universal Tune-Book" Vol. 1 Glasgow 1844 p.105 #2
S: http://imslp.org/wiki/Hamilton's_Universal_Tune-Book_(Various)
Z: 2016 John Chambers <jc:trillian.mit.edu>
M: C
L: 1/8
K: D
% - - - - - - - - - - - - - - - - - - - - - - - - -
A2 |\
d>ed>e d2cB | A>BA>B A2GF |\
EFGA Bcde | f2d2 d2Bc |\
dAdA d2Ac | edcB A2Bd |\
f2df e2ce | f2d2d2 |]
fg |\
afaf a2gf | eeee e2ce |\
d'd'd'd' d'2c'b | abag f2fg |\
afaf a2fg | bbbb Hb2e^g |\
afdf gece | f2d2d2 |]
% - - - - - - - - - - - - - - - - - - - - - - - - -

%%sep 1 1 500
%%sep 1 1 500

